public/images/cin-logo.svg

<svg width="171" height="24" viewBox="0 0 171 24" fill="none" xmlns="http://www.w3.org/2000/svg">
<path d="M7.02785e-05 17.2112C-0.0436102 16.2206 0.120281 15.2319 0.48127 14.3081C0.84226 13.3844 1.39241 12.5459 2.09656 11.8463C2.80072 11.1468 3.64339 10.6014 4.57073 10.2452C5.49807 9.88902 6.48968 9.72976 7.48221 9.77761C10.7003 9.77761 13.2427 11.3831 13.2427 13.6148C13.2427 14.0658 13.1252 14.509 12.9017 14.901C12.6783 15.2931 12.3565 15.6203 11.9679 15.8508C11.5794 16.0812 11.1375 16.2069 10.6856 16.2155C10.2337 16.2241 9.78736 16.1153 9.39033 15.8998C8.99329 15.6843 8.65924 15.3695 8.42096 14.9862C8.18267 14.603 8.04835 14.1646 8.03117 13.7139C8.014 13.2632 8.11455 12.8159 8.32297 12.4157C8.53139 12.0155 8.84051 11.6763 9.22 11.4313C9.0756 11.4158 8.92995 11.4158 8.78555 11.4313C7.04776 11.4313 5.71224 13.9199 5.71224 16.4084C5.65916 16.9135 5.70926 17.4241 5.85951 17.9093C6.00976 18.3945 6.25704 18.8443 6.58641 19.2314C6.91578 19.6186 7.3204 19.9351 7.77582 20.1619C8.23124 20.3886 8.728 20.5209 9.23609 20.5507C11.0608 20.4899 12.8143 19.8295 14.2242 18.6722C14.546 18.4153 15.6402 18.7685 15.4471 19.1699C14.5613 20.5978 13.3352 21.7849 11.8781 22.6252C10.421 23.4656 8.77819 23.9333 7.09603 23.9865C6.18005 24.0232 5.26606 23.8753 4.40863 23.5516C3.55121 23.228 2.76794 22.7353 2.10561 22.1029C1.44328 21.4705 0.915478 20.7114 0.553716 19.8709C0.191954 19.0305 0.00365701 18.1259 7.02785e-05 17.2112Z" fill="#58A399"/>
<path d="M14.5942 19.7479V10.8212C14.5942 10.0987 15.4953 10.0666 16.0263 10.0666C16.6066 10.0297 17.1884 10.1099 17.737 10.3023C18.2856 10.4947 18.7897 10.7955 19.2192 11.1866C19.6487 11.5777 19.9949 12.0511 20.2369 12.5787C20.479 13.1062 20.6121 13.677 20.6282 14.257V20.8718C20.6282 21.7708 22.9775 20.2938 24.2486 18.7364C24.5061 18.4153 25.6002 18.8488 25.4393 19.2662C24.7313 20.8718 22.2212 23.9704 19.0031 23.9704C18.4349 23.9853 17.8693 23.8876 17.3392 23.6829C16.8091 23.4782 16.325 23.1705 15.915 22.7778C15.5049 22.385 15.177 21.915 14.9503 21.3949C14.7236 20.8748 14.6026 20.315 14.5942 19.7479ZM14.9965 6.02068C14.9936 5.50588 15.1429 5.00166 15.4258 4.57112C15.7086 4.14058 16.1124 3.80284 16.5867 3.60017C17.061 3.39751 17.5847 3.33893 18.0921 3.43175C18.5996 3.52457 19.0684 3.76468 19.4398 4.12202C19.8112 4.47937 20.0687 4.93807 20.1801 5.44073C20.2915 5.94339 20.2519 6.46767 20.0662 6.94796C19.8804 7.42825 19.5568 7.84321 19.1359 8.14091C18.715 8.43861 18.2154 8.60582 17.6997 8.62162C17.3494 8.63458 17 8.57689 16.6725 8.45199C16.345 8.32709 16.0462 8.13756 15.7938 7.89474C15.5414 7.65192 15.3407 7.36079 15.2037 7.03878C15.0667 6.71677 14.9963 6.3705 14.9965 6.02068Z" fill="#58A399"/>
<path d="M32.2619 19.7479V14.2249C32.2619 11.335 30.7655 11.0139 29.3978 11.5597V22.8947C29.3978 23.6172 28.4967 23.6493 27.9496 23.6493C27.3714 23.684 26.7921 23.6021 26.2463 23.4085C25.7005 23.2149 25.1994 22.9135 24.7729 22.5224C24.3464 22.1313 24.0033 21.6585 23.7639 21.1321C23.5246 20.6058 23.394 20.0367 23.3799 19.4589V10.8212C23.3799 10.0987 24.2649 10.0666 24.7959 10.0666C25.833 10.048 26.8486 10.3633 27.6922 10.9657C29.0099 10.1665 30.5269 9.75463 32.0688 9.77762C36.5581 9.77762 38.2959 12.4909 38.2959 14.5942V20.7754C38.2959 21.3213 38.2959 21.819 39.5992 20.7754C39.921 20.5186 41.0152 20.8878 40.7899 21.3053C40.369 22.0556 39.7708 22.692 39.0473 23.1593C38.3238 23.6265 37.497 23.9105 36.6386 23.9865C36.0717 23.9971 35.5083 23.8957 34.9809 23.688C34.4535 23.4804 33.9725 23.1706 33.5656 22.7766C33.1588 22.3826 32.8341 21.9121 32.6104 21.3923C32.3866 20.8725 32.2682 20.3136 32.2619 19.7479Z" fill="#58A399"/>
<path d="M42.8335 21.3374C42.8335 20.8229 42.9864 20.3201 43.2728 19.8924C43.5592 19.4646 43.9663 19.1313 44.4426 18.9344C44.9189 18.7375 45.4431 18.686 45.9487 18.7864C46.4544 18.8868 46.9188 19.1345 47.2834 19.4982C47.6479 19.862 47.8962 20.3254 47.9968 20.8299C48.0974 21.3345 48.0457 21.8574 47.8484 22.3327C47.6511 22.808 47.317 23.2142 46.8884 23.5C46.4597 23.7858 45.9557 23.9383 45.4402 23.9383C44.7501 23.9341 44.0896 23.6587 43.6016 23.1719C43.1137 22.685 42.8377 22.0259 42.8335 21.3374Z" fill="#121B21"/>
<path d="M59.9055 19.7479V14.2249C59.9055 11.335 58.393 11.0139 57.0253 11.5598V22.8947C57.0253 23.6172 56.1403 23.6493 55.5771 23.6493C54.9989 23.684 54.4196 23.6021 53.8738 23.4085C53.328 23.2149 52.8269 22.9135 52.4004 22.5224C51.9739 22.1313 51.6307 21.6585 51.3914 21.1321C51.1521 20.6058 51.0214 20.0367 51.0074 19.4589V12.8442C51.0074 12.6515 51.0074 12.5552 50.7982 12.5552C49.7491 12.9533 48.8149 13.6041 48.0789 14.4497C47.7892 14.8029 46.7112 14.3373 46.8882 13.9359C47.5801 12.3304 50.1063 9.7134 52.6486 9.7134C53.7054 9.70806 54.7285 10.0844 55.5288 10.773C56.7989 10.0564 58.2374 9.69067 59.6963 9.7134C64.1856 9.7134 65.9234 12.4267 65.9234 14.53V20.8718C65.9234 21.7709 68.2726 20.2938 69.5438 18.7364C69.8012 18.4153 70.9115 18.8488 70.7345 19.2663C70.0426 20.8718 67.5163 23.9704 64.2982 23.9704C63.7313 23.9832 63.1675 23.8839 62.6393 23.6782C62.1111 23.4725 61.6289 23.1645 61.2205 22.772C60.8122 22.3795 60.4857 21.9101 60.26 21.3911C60.0343 20.8721 59.9138 20.3136 59.9055 19.7479Z" fill="#121B21"/>
<path d="M68.1436 20.4704C68.1436 16.0552 75.6257 16.5048 75.6257 13.1813C75.6416 12.9123 75.5982 12.643 75.4987 12.3925C75.3992 12.142 75.2459 11.9162 75.0496 11.731C74.8534 11.5459 74.6188 11.4059 74.3625 11.3208C74.1063 11.2358 73.8344 11.2077 73.5661 11.2386C73.0698 11.2511 72.584 11.3833 72.1501 11.624C72.4788 11.8263 72.7493 12.1101 72.9354 12.4477C73.1215 12.7853 73.2168 13.1653 73.2121 13.5506C73.2121 14.1638 72.968 14.7518 72.5335 15.1854C72.0989 15.619 71.5096 15.8625 70.8951 15.8625C70.2805 15.8625 69.6912 15.619 69.2567 15.1854C68.8221 14.7518 68.578 14.1638 68.578 13.5506C68.578 11.2226 71.8927 9.71339 75.1108 9.71339C79.4231 9.71339 81.6597 12.3946 81.6597 15.413V20.8718C81.6597 21.7709 83.9928 20.2938 85.2962 18.7364C85.5375 18.4153 86.6639 18.8488 86.4869 19.2662C85.795 20.8718 83.2687 23.9704 80.0506 23.9704C79.454 23.9814 78.8614 23.8718 78.3084 23.6483C77.7553 23.4248 77.2533 23.092 76.8325 22.67C75.5213 23.4969 74.0068 23.9469 72.4558 23.9704C71.9423 24.0237 71.4232 23.9755 70.9283 23.8283C70.4335 23.6812 69.9726 23.4381 69.572 23.113C69.1715 22.7879 68.8391 22.3871 68.594 21.9337C68.3489 21.4802 68.1958 20.983 68.1436 20.4704ZM75.6257 21.6264V16.1997C74.4994 17.436 73.019 18.3029 73.019 19.9245C72.987 20.4645 73.1648 20.9961 73.5154 21.4087C73.866 21.8213 74.3625 22.0833 74.9016 22.1401C75.2717 22.1401 75.6257 21.8832 75.6257 21.6264Z" fill="#121B21"/>
<path d="M90.4615 15.9268V22.8947C90.4615 23.6172 89.5927 23.6493 89.0295 23.6493C88.4492 23.6862 87.8673 23.6061 87.3188 23.4136C86.7702 23.2212 86.2661 22.9205 85.8366 22.5293C85.4071 22.1382 85.0609 21.6648 84.8188 21.1372C84.5767 20.6097 84.4437 20.0389 84.4276 19.4589V4.39912C82.915 4.39912 77.042 8.55742 72.8745 8.55742C72.3919 8.60672 71.9044 8.55468 71.4432 8.40465C70.982 8.25462 70.5573 8.00992 70.1966 7.6863C69.8359 7.36267 69.5471 6.96728 69.3487 6.52557C69.1504 6.08387 69.0469 5.60562 69.0449 5.1216C69.2911 3.26184 70.1451 1.53501 71.4746 0.208704C71.7321 -0.0802899 72.6975 -0.0802899 72.6975 0.208704C72.6227 0.733017 72.6677 1.2674 72.8289 1.77197C72.9901 2.27653 73.2635 2.73824 73.6286 3.12262C73.9937 3.50699 74.4411 3.80411 74.9375 3.99178C75.4338 4.17946 75.9662 4.25284 76.4949 4.20645C79.713 4.20645 82.8346 2.47249 85.8757 2.47249C86.4624 2.43293 87.051 2.51398 87.6051 2.71061C88.1591 2.90725 88.6668 3.21528 89.0967 3.61563C89.5266 4.01599 89.8696 4.50014 90.1043 5.03812C90.3391 5.57609 90.4607 6.15642 90.4615 6.74318V13.2777C91.0492 11.9944 91.9655 10.8883 93.1181 10.0709C94.2706 9.25349 95.6187 8.75362 97.0265 8.62164C97.5414 8.62165 98.0447 8.77379 98.473 9.05889C98.9013 9.34398 99.2354 9.74925 99.4332 10.2236C99.631 10.6979 99.6835 11.22 99.5842 11.7241C99.4849 12.2282 99.2383 12.6917 98.8753 13.0561C98.5124 13.4204 98.0494 13.6694 97.5448 13.7716C97.0403 13.8737 96.5167 13.8245 96.0401 13.6301C95.5635 13.4357 95.1553 13.1049 94.8669 12.6792C94.5786 12.2536 94.423 11.7524 94.4198 11.2386C94.4198 11.2386 94.4198 11.062 94.4198 10.9496C93.4351 11.6359 92.6071 12.5223 91.9901 13.5506C97.1231 14.0965 98.4264 20.6631 99.3114 20.6631C99.7458 20.6631 100.792 20.2296 102.095 18.7204C102.353 18.3993 103.463 18.8328 103.286 19.2502C102.594 20.8557 100.068 23.9544 96.8495 23.9544C92.2476 23.9383 92.3924 16.9222 90.4615 15.9268Z" fill="#121B21"/>
<path d="M100.937 20.4704C100.937 16.0552 108.419 16.5048 108.419 13.1813C108.432 12.913 108.387 12.645 108.286 12.3958C108.186 12.1466 108.032 11.922 107.837 11.7374C107.641 11.5529 107.408 11.4127 107.153 11.3266C106.897 11.2406 106.627 11.2105 106.359 11.2386C105.857 11.2491 105.366 11.3814 104.927 11.624C105.26 11.8231 105.534 12.1058 105.723 12.4438C105.913 12.7819 106.01 13.1635 106.005 13.5506C106.005 14.1638 105.761 14.7518 105.326 15.1854C104.892 15.619 104.303 15.8625 103.688 15.8625C103.074 15.8625 102.484 15.619 102.05 15.1854C101.615 14.7518 101.371 14.1638 101.371 13.5506C101.371 11.2226 104.589 9.71339 107.807 9.71339C112.12 9.71339 114.356 12.3946 114.356 15.413V20.8718C114.356 21.7709 116.705 20.2938 118.009 18.7364C118.234 18.4153 119.376 18.8488 119.199 19.2662C118.507 20.8718 115.981 23.9704 112.763 23.9704C112.167 23.9814 111.574 23.8718 111.021 23.6483C110.468 23.4248 109.966 23.092 109.545 22.67C108.232 23.4924 106.719 23.942 105.168 23.9704C104.144 24.0557 103.127 23.737 102.336 23.0826C101.545 22.4282 101.042 21.4903 100.937 20.4704ZM108.419 21.6264V16.1997C107.276 17.436 105.796 18.3029 105.796 19.9245C105.764 20.467 105.944 21.0007 106.298 21.4138C106.652 21.8268 107.153 22.0871 107.695 22.1401C108.065 22.1401 108.419 21.8832 108.419 21.6264Z" fill="#121B21"/>
<path d="M116.898 23.2801C116.399 22.9911 115.643 22.5255 116.029 21.8833C116.029 21.8833 119.408 16.6332 121.5 13.4222C120.54 14.0417 119.425 14.3809 118.282 14.4015C117.828 14.3858 117.388 14.2369 117.017 13.9735C116.647 13.71 116.363 13.3437 116.2 12.9201C116.036 12.4965 116.002 12.0344 116.1 11.5913C116.198 11.1483 116.425 10.7439 116.752 10.4285C117.079 10.1132 117.492 9.90081 117.939 9.81791C118.386 9.73502 118.848 9.78525 119.267 9.96235C119.685 10.1395 120.043 10.4356 120.294 10.8139C120.545 11.1921 120.679 11.6358 120.68 12.0896V12.3786C122.53 11.5116 123.608 9.77762 126.215 9.77762C127.093 9.78378 127.957 10.0101 128.725 10.4359C129.175 10.7249 129.964 11.1905 129.594 11.8327C129.594 11.8327 126.086 17.2593 123.994 20.4383C125.129 19.3924 126.602 18.7883 128.146 18.7364C128.66 18.7428 129.16 18.9007 129.585 19.1903C130.009 19.4799 130.338 19.8883 130.531 20.3641C130.723 20.8399 130.77 21.3618 130.666 21.8642C130.562 22.3666 130.311 22.827 129.945 23.1876C129.579 23.5481 129.115 23.7927 128.61 23.8904C128.105 23.9882 127.583 23.9349 127.109 23.7371C126.634 23.5393 126.229 23.206 125.944 22.779C125.659 22.352 125.507 21.8504 125.507 21.3374C125.499 21.2305 125.499 21.1232 125.507 21.0163C123.769 22.092 122.53 23.9383 119.424 23.9383C118.541 23.9268 117.674 23.7009 116.898 23.2801Z" fill="#121B21"/>
<path d="M130.479 20.4704C130.479 16.0552 137.961 16.5048 137.961 13.1813C137.974 12.913 137.929 12.645 137.829 12.3958C137.728 12.1466 137.575 11.922 137.379 11.7374C137.183 11.5529 136.95 11.4127 136.695 11.3266C136.44 11.2406 136.169 11.2105 135.902 11.2386C135.405 11.2471 134.918 11.3796 134.486 11.624C134.814 11.8263 135.085 12.1101 135.271 12.4477C135.457 12.7853 135.552 13.1653 135.548 13.5506C135.548 13.8542 135.488 14.1548 135.371 14.4353C135.255 14.7158 135.084 14.9707 134.869 15.1854C134.654 15.4001 134.398 15.5704 134.117 15.6866C133.836 15.8027 133.535 15.8625 133.231 15.8625C132.926 15.8625 132.625 15.8027 132.344 15.6866C132.063 15.5704 131.807 15.4001 131.592 15.1854C131.377 14.9707 131.206 14.7158 131.09 14.4353C130.973 14.1548 130.913 13.8542 130.913 13.5506C130.913 11.2226 134.132 9.71339 137.35 9.71339C141.662 9.71339 143.899 12.3946 143.899 15.413V20.8718C143.899 21.7709 146.248 20.2938 147.551 18.7364C147.776 18.4153 148.919 18.8488 148.742 19.2662C148.05 20.8718 145.524 23.9704 142.306 23.9704C141.709 23.9814 141.116 23.8718 140.563 23.6483C140.01 23.4248 139.508 23.092 139.087 22.67C137.774 23.4924 136.261 23.942 134.711 23.9704C133.687 24.0557 132.67 23.737 131.879 23.0826C131.087 22.4282 130.585 21.4903 130.479 20.4704ZM137.961 21.6264V16.1997C136.819 17.436 135.354 18.3029 135.354 19.9245C135.318 20.4655 135.495 20.9992 135.846 21.4127C136.197 21.8262 136.696 22.0871 137.237 22.1401C137.607 22.1401 137.961 21.8832 137.961 21.6264Z" fill="#121B21"/>
<path d="M146.73 19.7479V11.5919H146.151C145.899 11.5255 145.678 11.374 145.525 11.1632C145.373 10.9524 145.298 10.6954 145.314 10.4359C145.314 10.2914 145.314 10.0666 145.475 10.0666H146.73V7.61016C146.746 7.03017 146.879 6.45937 147.121 5.93184C147.364 5.4043 147.71 4.93084 148.139 4.53973C148.569 4.14862 149.073 3.84787 149.621 3.65545C150.17 3.46302 150.752 3.38286 151.332 3.41975C151.863 3.41975 152.748 3.41975 152.748 4.17434V10.0666H153.939C154.194 10.1321 154.419 10.2823 154.577 10.4924C154.734 10.7026 154.816 10.9601 154.808 11.2226C154.808 11.3671 154.808 11.5919 154.615 11.5919H152.748V20.8718C152.748 21.7709 155.097 20.2938 156.401 18.7364C156.642 18.4153 157.768 18.8488 157.591 19.2662C156.867 20.8718 154.373 23.9704 151.155 23.9704C150.586 23.9854 150.02 23.8877 149.489 23.6832C148.958 23.4787 148.473 23.1713 148.061 22.7787C147.65 22.3862 147.32 21.9163 147.092 21.3961C146.864 20.8759 146.741 20.3158 146.73 19.7479Z" fill="#121B21"/>
<path d="M155.017 16.858C155.194 14.9231 156.089 13.124 157.527 11.814C158.965 10.5039 160.842 9.77762 162.789 9.77762C164.736 9.77762 166.613 10.5039 168.051 11.814C169.489 13.124 170.384 14.9231 170.561 16.858C170.384 18.7928 169.489 20.5919 168.051 21.902C166.613 23.212 164.736 23.9383 162.789 23.9383C160.842 23.9383 158.965 23.212 157.527 21.902C156.089 20.5919 155.194 18.7928 155.017 16.858ZM164.543 16.858C164.543 13.8235 163.754 11.3671 162.773 11.3671C161.791 11.3671 161.035 13.8235 161.035 16.858C161.035 19.8924 161.823 22.3489 162.773 22.3489C163.722 22.3489 164.543 19.8924 164.543 16.858Z" fill="#121B21"/>
</svg>

<svg xmlns="http://www.w3.org/2000/svg" width="171" height="24" fill="none" viewBox="0 0 171 24"><path fill="#58a399" d="M0 17.211a7.12 7.12 0 0 1 2.097-5.365 7.15 7.15 0 0 1 5.385-2.068c3.218 0 5.76 1.605 5.76 3.837a2.6 2.6 0 0 1-1.274 2.236 2.61 2.61 0 0 1-3.547-.865 2.596 2.596 0 0 1 .799-3.555 2 2 0 0 0-.434 0c-1.738 0-3.074 2.489-3.074 4.977a3.75 3.75 0 0 0 2.064 3.754c.455.227.952.359 1.46.389a8.3 8.3 0 0 0 4.988-1.879c.322-.257 1.416.096 1.223.498a10.2 10.2 0 0 1-3.569 3.455c-1.457.84-3.1 1.308-4.782 1.361a6.83 6.83 0 0 1-4.99-1.883A6.8 6.8 0 0 1 0 17.21"/><path fill="#58a399" d="M14.594 19.748V10.82c0-.722.901-.754 1.432-.754a4.34 4.34 0 0 1 3.193 1.12 4.32 4.32 0 0 1 1.41 3.07v6.615c0 .899 2.348-.578 3.62-2.136.257-.32 1.351.113 1.19.53-.708 1.606-3.218 4.704-6.436 4.704a4.3 4.3 0 0 1-3.088-1.192 4.29 4.29 0 0 1-1.32-3.03m.402-13.727a2.61 2.61 0 0 1 1.59-2.42 2.63 2.63 0 0 1 2.854.521 2.615 2.615 0 0 1-1.74 4.5 2.61 2.61 0 0 1-2.496-1.583 2.6 2.6 0 0 1-.208-1.018"/><path fill="#58a399" d="M32.262 19.748v-5.523c0-2.89-1.497-3.211-2.864-2.665v11.335c0 .722-.901.754-1.448.754a4.32 4.32 0 0 1-3.177-1.127 4.3 4.3 0 0 1-1.393-3.063V10.82c0-.722.885-.754 1.416-.754a4.84 4.84 0 0 1 2.896.899 8.2 8.2 0 0 1 4.377-1.188c4.49 0 6.227 2.713 6.227 4.816v6.181c0 .546 0 1.044 1.303 0 .322-.256 1.416.113 1.19.53a5.29 5.29 0 0 1-4.15 2.682 4.3 4.3 0 0 1-3.073-1.21 4.29 4.29 0 0 1-1.304-3.03"/><path fill="#121b21" d="M42.834 21.337a2.6 2.6 0 0 1 1.609-2.403 2.61 2.61 0 0 1 2.84.564 2.6 2.6 0 1 1-3.681 3.674 2.61 2.61 0 0 1-.768-1.835M59.906 19.748v-5.523c0-2.89-1.513-3.211-2.88-2.665v11.335c0 .722-.886.754-1.449.754a4.32 4.32 0 0 1-3.177-1.127 4.3 4.3 0 0 1-1.393-3.063v-6.615c0-.192 0-.289-.209-.289a6.8 6.8 0 0 0-2.72 1.895c-.289.353-1.367-.113-1.19-.514.692-1.606 3.218-4.223 5.76-4.223a4.38 4.38 0 0 1 2.88 1.06 8.2 8.2 0 0 1 4.168-1.06c4.49 0 6.227 2.714 6.227 4.817v6.342c0 .899 2.35-.578 3.62-2.136.258-.32 1.368.113 1.191.53-.691 1.606-3.218 4.704-6.436 4.704a4.3 4.3 0 0 1-3.078-1.198 4.29 4.29 0 0 1-1.314-3.024"/><path fill="#121b21" d="M68.144 20.47c0-4.415 7.482-3.965 7.482-7.289a1.84 1.84 0 0 0-1.264-1.86 1.86 1.86 0 0 0-.796-.082 3.1 3.1 0 0 0-1.416.385 2.23 2.23 0 0 1 1.062 1.927 2.3 2.3 0 0 1-.678 1.634 2.32 2.32 0 0 1-3.956-1.634c0-2.328 3.315-3.838 6.533-3.838 4.312 0 6.549 2.682 6.549 5.7v5.459c0 .899 2.333-.578 3.636-2.136.241-.32 1.368.113 1.19.53-.691 1.606-3.217 4.704-6.435 4.704a4.43 4.43 0 0 1-3.219-1.3 8.45 8.45 0 0 1-4.376 1.3 3.93 3.93 0 0 1-3.862-2.036 3.9 3.9 0 0 1-.45-1.464m7.482 1.156V16.2c-1.127 1.236-2.607 2.103-2.607 3.724a2.1 2.1 0 0 0 1.883 2.216c.37 0 .724-.257.724-.514"/><path fill="#121b21" d="M90.462 15.927v6.968c0 .722-.87.754-1.433.754a4.335 4.335 0 0 1-4.21-2.512 4.3 4.3 0 0 1-.391-1.678V4.399c-1.513 0-7.386 4.158-11.553 4.158a3.48 3.48 0 0 1-3.526-2.031 3.5 3.5 0 0 1-.304-1.404 8.52 8.52 0 0 1 2.43-4.913c.257-.29 1.223-.29 1.223 0a3.5 3.5 0 0 0 .93 2.914 3.52 3.52 0 0 0 2.867 1.083c3.218 0 6.34-1.734 9.38-1.734a4.3 4.3 0 0 1 3.222 1.144 4.29 4.29 0 0 1 1.365 3.127v6.535a8.03 8.03 0 0 1 2.656-3.207 8.06 8.06 0 0 1 3.909-1.45 2.61 2.61 0 0 1 2.406 1.603 2.595 2.595 0 0 1-.558 2.832 2.609 2.609 0 0 1-4.455-1.817v-.29a8.5 8.5 0 0 0-2.43 2.602c5.133.546 6.436 7.112 7.321 7.112.435 0 1.481-.433 2.784-1.943.258-.32 1.368.113 1.191.53-.692 1.606-3.218 4.704-6.436 4.704-4.602-.016-4.458-7.032-6.388-8.027"/><path fill="#121b21" d="M100.937 20.47c0-4.415 7.482-3.965 7.482-7.289a1.85 1.85 0 0 0-.582-1.444 1.87 1.87 0 0 0-1.478-.498c-.502.01-.993.142-1.432.385a2.21 2.21 0 0 1 1.078 1.927 2.317 2.317 0 0 1-3.955 1.635 2.3 2.3 0 0 1-.679-1.635c0-2.328 3.218-3.838 6.436-3.838 4.313 0 6.549 2.682 6.549 5.7v5.459c0 .899 2.349-.578 3.653-2.136.225-.32 1.367.113 1.19.53-.692 1.606-3.218 4.704-6.436 4.704a4.43 4.43 0 0 1-3.218-1.3 8.54 8.54 0 0 1-4.377 1.3 3.93 3.93 0 0 1-2.832-.887 3.9 3.9 0 0 1-1.399-2.613m7.482 1.156V16.2c-1.143 1.236-2.623 2.103-2.623 3.724a2.1 2.1 0 0 0 .502 1.49 2.1 2.1 0 0 0 1.397.726c.37 0 .724-.257.724-.514"/><path fill="#121b21" d="M116.898 23.28c-.499-.289-1.255-.755-.869-1.397 0 0 3.379-5.25 5.471-8.46a6.14 6.14 0 0 1-3.218.979 2.313 2.313 0 0 1-1.53-3.973 2.32 2.32 0 0 1 3.928 1.66v.29c1.85-.867 2.928-2.601 5.535-2.601a5.26 5.26 0 0 1 2.51.658c.45.289 1.239.755.869 1.397 0 0-3.508 5.426-5.6 8.605a6.45 6.45 0 0 1 4.152-1.702 2.61 2.61 0 0 1 2.385 1.628 2.6 2.6 0 0 1-1.921 3.526 2.61 2.61 0 0 1-2.666-1.111 2.6 2.6 0 0 1-.437-1.442 2 2 0 0 1 0-.32c-1.738 1.075-2.977 2.921-6.083 2.921a5.45 5.45 0 0 1-2.526-.658"/><path fill="#121b21" d="M130.479 20.47c0-4.415 7.482-3.965 7.482-7.289a1.87 1.87 0 0 0-.582-1.444 1.87 1.87 0 0 0-1.477-.498 3 3 0 0 0-1.416.385 2.24 2.24 0 0 1 1.062 1.927 2.307 2.307 0 0 1-1.431 2.136 2.32 2.32 0 0 1-3.204-2.136c0-2.328 3.219-3.838 6.437-3.838 4.312 0 6.549 2.682 6.549 5.7v5.459c0 .899 2.349-.578 3.652-2.136.225-.32 1.368.113 1.191.53-.692 1.606-3.218 4.704-6.436 4.704a4.43 4.43 0 0 1-3.219-1.3 8.54 8.54 0 0 1-4.376 1.3 3.93 3.93 0 0 1-2.832-.887 3.9 3.9 0 0 1-1.4-2.613m7.482 1.156V16.2c-1.142 1.236-2.607 2.103-2.607 3.724a2.086 2.086 0 0 0 1.883 2.216c.37 0 .724-.257.724-.514"/><path fill="#121b21" d="M146.73 19.748v-8.156h-.579a1.13 1.13 0 0 1-.837-1.156c0-.145 0-.37.161-.37h1.255V7.61a4.3 4.3 0 0 1 1.409-3.07 4.34 4.34 0 0 1 3.193-1.12c.531 0 1.416 0 1.416.754v5.893h1.191a1.16 1.16 0 0 1 .869 1.156c0 .144 0 .369-.193.369h-1.867v9.28c0 .899 2.349-.578 3.653-2.136.241-.32 1.367.113 1.19.53-.724 1.606-3.218 4.704-6.436 4.704a4.32 4.32 0 0 1-4.063-2.574 4.3 4.3 0 0 1-.362-1.648"/><path fill="#121b21" d="M155.017 16.858a7.78 7.78 0 0 1 2.51-5.044 7.814 7.814 0 0 1 10.524 0 7.78 7.78 0 0 1 2.51 5.044 7.78 7.78 0 0 1-2.51 5.044 7.814 7.814 0 0 1-10.524 0 7.78 7.78 0 0 1-2.51-5.044m9.526 0c0-3.035-.789-5.49-1.77-5.49-.982 0-1.738 2.455-1.738 5.49 0 3.034.788 5.49 1.738 5.49.949 0 1.77-2.456 1.77-5.49"/></svg>
